X:1
T:Faded Love
M:4/4
L:1/4
K:Bb
 B, D| F2 F G| F D C B,| B2 B3/2 c/2| B2 A- G| F4| G F F D| C4-| C z B, D|\
 F3 G| F- D C B,| B2 B3/2 c/2| B2 A G| F2 A B| c3 d| B4-| B3 d| f3 g|\
 f d c B| G2 B3/2 c/2| B3 d| f2 f3/2 g/2| f d c B| c4-| c3 d| f3 g|\
 f d c B| G3 B| B2 A G| F2 A B| c3 d| B4-| B2||
